X:13178
T:Piping Pyman's Hornpipe,The. JB.66
T:Butcher's Hp,aka. JB.66
M:4/4
L:1/8
Q:180
S:James Biggins MS, Leeds, 1779.
R:Hornpipe
O:England
A:Yorkshire
Z:vmp.Nick Barber & Chris Partington
K:A
"Key Cmaj in MS"ED|CDEC CDEC|A,2A2A2BA|GABG GABG|E2e"tr"e3dc|defd cdec|B2a
2g3f/g/|aefd ecBA|E2A2A2:|
|:cd|ecAc ecAc|fdBd fdBd|dcde fgab|g2e"tr"e3dc|defd cdec|B2a2g3f/g/|aefd ec
BA|E2ABA2:|]
